X: 222
T:Queens March. JC.227
M:C
L:1/8
Q:160
S:John Clare,Poet,Helpstone (1793-1864)
R:March
O:England227
A:Northamptonshire
N:No TS in MS.
Z:vmp.P. Headford
K:D
d4A4|GFEDF2A2|d3de3e|gfed dcBA|d4A4|!
GFEDF2A2|d2gda2gf|e2e>ee2z2:|!
|:g3e dcBA|f2d2f2d2|g3e dcBA|a2f2a2f2|!
d3e efge|dcBA"crot"a3g|f2f>ge2ef|d2d>dd2z2:|]
